packages/icons/src/SVG/column-chooser.svg

<!-- Generated by IcoMoon.io -->
<svg version="1.1" xmlns="http://www.w3.org/2000/svg" width="12" height="12" viewBox="0 0 12 12">
<title>column-chooser</title>
<path d="M0 0h12v12h-12v-12zM1 3v1h3v1h-3v1h3v1h-3v1h3v1h-3v2h4v-8h-4zM6 3v1h3v1h-3v1h3v1h-3v1h3v1h-3v2h5v-8h-5zM11 1h-10v1h10v-1z"></path>
</svg>

<svg width="12" height="12" viewBox="0 0 12 12" >
<path fill-rule="evenodd" clip-rule="evenodd" d="M0 0H12V12H0V0ZM1 3V4H4V5H1V6H4V7H1V8H4V9H1V11H5V3H1ZM6 3V4H9V5H6V6H9V7H6V8H9V9H6V11H11V3H6ZM11 1H1V2H11V1Z" />
</svg>
